svgs/thin/flag.svg

<svg xmlns="http://www.w3.org/2000/svg" viewBox="0 0 512 512"><!--! Font Awesome Pro 6.0.0-alpha3 by @fontawesome - https://fontawesome.com License - https://fontawesome.com/license (Commercial License) --><path d="M498.5 6.232C491.7 2.1 484.2 0 476.3 0c-6.637 0-13.26 1.459-19.34 4.233c-41.76 19.06-76.03 27.94-107.8 27.94c-28.96 0-51.76-7.325-75.9-15.09C247.5 8.836 220.1 .3094 185.2 .3055C157.1 .3055 119.7 3.289 32 38.84L16 45.32V8C16 3.582 12.42 0 8 0S0 3.582 0 8v496C0 508.4 3.594 512 8 512s8-3.594 8-8v-105.8l20.68-9.277c19.62-9.121 79.13-36.78 144.2-36.78c36.84 0 67.15 7.717 99.25 15.89c30.72 7.816 62.49 15.9 99.31 15.9c35.46 0 72.08-7.549 111.1-23.09c12.37-4.805 20.37-16.5 20.38-29.78L512 32.35C512 21.28 506.8 11.28 498.5 6.232zM495.8 331.1c-.0059 6.637-4.004 12.48-10.19 14.89c-38 14.81-72.72 22-106.2 22c-34.81 0-65.59-7.832-95.36-15.41C250.9 344.1 219.7 336.2 180.8 336.2c-68.58 0-130.5 28.79-150.8 38.24L16 380.7V62.58L38.01 53.66c85.06-34.46 120.6-37.35 147.2-37.35c33.25 .0039 57.45 7.773 83.09 16c24.26 7.801 49.34 15.86 80.79 15.86c34.18 0 70.55-9.336 114.5-29.38C467.5 16.99 472.1 16 476.4 16c4.994 0 9.529 1.281 13.87 3.914C493.7 22.04 496 26.92 496 32.34L495.8 331.1z"/></svg>

<svg xmlns="http://www.w3.org/2000/svg" viewBox="0 0 512 512"><!-- Font Awesome Pro 6.0.0-alpha2 by @fontawesome - https://fontawesome.com License - https://fontawesome.com/license (Commercial License) --><path d="M498.529 6.23C491.717 2.098 484.258 0 476.367 0C469.73 0 463.008 1.465 456.928 4.238C415.164 23.301 380.898 32.18 349.092 32.18C320.131 32.18 297.332 24.848 273.195 17.086C247.5 8.836 220.957 0.316 185.211 0.312C157.084 0.312 119.732 3.289 32 38.836L16 45.32V8C16 3.582 12.418 0 8 0S0 3.582 0 8V504C0 508.406 3.594 512 8 512S16 508.406 16 504V398.219L22.508 395.32L32.002 391.094L36.682 388.941C56.305 379.82 115.812 352.164 180.844 352.164C217.687 352.164 248.002 359.879 280.096 368.047C310.82 375.863 342.586 383.945 379.4 383.945C414.861 383.945 451.486 376.391 491.365 360.848C503.732 356.043 511.738 344.352 511.75 331.07L512 32.352C512.008 21.281 506.846 11.273 498.529 6.23ZM495.75 331.055C495.744 337.691 491.746 343.535 485.557 345.941C447.557 360.75 412.832 367.945 379.4 367.945C344.588 367.945 313.809 360.113 284.041 352.539C250.945 344.117 219.684 336.164 180.844 336.164C112.264 336.164 50.342 364.949 29.994 374.406L25.494 376.477L16 380.703V62.582L38.008 53.664C123.072 19.199 158.594 16.313 185.209 16.313C218.459 16.316 242.656 24.086 268.297 32.316C292.553 40.117 317.635 48.18 349.092 48.18C383.275 48.18 419.646 38.844 463.566 18.797C467.523 16.992 472.07 16 476.367 16C481.361 16 485.896 17.281 490.236 19.914C493.742 22.039 496.004 26.918 496 32.34L495.75 331.055Z"/></svg>
